X: 210
T: WALTZ: Munster Cloak
C: C: Trad.; S: Various
C: Set Leaders: Tania, Anton, Mars, Sophie
Z: Anton Zille ed., Oleg Naumov arr.; Alastair Wilson at The Session
N: https://thesession.org/members/26966/sets/92389
R: Waltz
M: 3/4
L: 1/8
Q: 1/4=144
K: Gmaj
|:"G"G2 GA BG|"D"A2 AB cA|"G"G2 GA Bd|"C"c2 A2 "D/F#"d2|
"G (Em)"G2 GA BG|"D"A2 AB cA|"C"d2 de fd|1 "D"c2 A2 F2:|2 "D"c2 A2 f2||
|:"G (Em)"g3a gf|"D"d2 g2 a2|"G"b3 a g2|"D"f2 g2 a2|
"C (G)"b3 a g2|"D"f2 de fd|"C"dc Ad cA|1 "D"A2 G2 f2:|2 "D"A2 G2 F2||

